images/lpt.svg

<svg height="250" viewBox="0 0 250 250" width="250" xmlns="http://www.w3.org/2000/svg"><path d="m203.125 147.058594v-44.117188h46.875v44.117188zm0 0"/><path d="m101.5625 95.589844v-44.121094h46.875v44.121094zm0 0"/><path d="m101.5625 198.53125v-44.121094h46.875v44.121094zm0 0"/><path d="m0 250v-44.117188h46.875v44.117188zm0 0"/><path d="m0 147.058594v-44.117188h46.875v44.117188zm0 0"/><path d="m0 44.117188v-44.117188h46.875v44.117188zm0 0"/></svg>

<svg xmlns="http://www.w3.org/2000/svg" width="250" height="250"><path d="M203.125 147.059V102.94H250v44.118zM101.563 95.59V51.469h46.874v44.12zM101.563 198.531v-44.12h46.874v44.12zM0 250v-44.117h46.875V250zM0 147.059V102.94h46.875v44.118zM0 44.117V0h46.875v44.117zm0 0"/></svg>
